icons/svgs/xmark-solid.svg

<svg width="24" height="24" viewBox="0 0 24 24" fill="none" xmlns="http://www.w3.org/2000/svg">
<path d="M18.3594 7.89844L14.2578 12L18.3594 16.1406C18.8672 16.6094 18.8672 17.4297 18.3594 17.8984C17.8906 18.4062 17.0703 18.4062 16.6016 17.8984L12.5 13.7969L8.35938 17.8984C7.89062 18.4062 7.07031 18.4062 6.60156 17.8984C6.09375 17.4297 6.09375 16.6094 6.60156 16.1406L10.7031 12L6.60156 7.89844C6.09375 7.42969 6.09375 6.60938 6.60156 6.14062C7.07031 5.63281 7.89062 5.63281 8.35938 6.14062L12.5 10.2422L16.6016 6.14062C17.0703 5.63281 17.8906 5.63281 18.3594 6.14062C18.8672 6.60938 18.8672 7.42969 18.3594 7.89844Z" fill="black"/>
</svg>

<svg xmlns="http://www.w3.org/2000/svg" width="24" height="24" fill="currentColor" class="icon-xmark-solid" viewBox="0 0 24 24">
  <mask id="a" width="13" height="14" x="6" y="5" maskUnits="userSpaceOnUse" style="mask-type:alpha">
    <path d="M18.36 7.898 14.257 12l4.101 4.14c.508.47.508 1.29 0 1.758a1.205 1.205 0 0 1-1.757 0L12.5 13.797l-4.14 4.101a1.205 1.205 0 0 1-1.758 0 1.205 1.205 0 0 1 0-1.757L10.703 12 6.602 7.898a1.205 1.205 0 0 1 0-1.757 1.205 1.205 0 0 1 1.757 0l4.141 4.101 4.102-4.101a1.205 1.205 0 0 1 1.757 0 1.203 1.203 0 0 1 0 1.757"/>
  </mask>
  <g mask="url(#a)">
    <path d="M0 0h24v24H0z"/>
  </g>
</svg>
